X:1
T:Sorrows Away (Thousands or More)
M:3/4
L:1/4
K:C
 z2 G,| C E C|D/2-E/2 F E|E/2-D/2 C E| D2 E/2F/2| G3/2 E/2 G| F E D|\
C/2-D/2 E D| C3| GG/2-F/2E/2-F/2| G3| CC/2-B,/2 A,| G,3/2- A,/2- B,|\
 GA/2-G/2 E| E2- G-| D2 E/2F/2| G3/2 E/2 G| F E D|C/2-D/2 E D| C2 z|\
